resources/svg/star-smile-fill.svg

<svg fill="currentColor" viewBox="0 0 24 24" xmlns="http://www.w3.org/2000/svg"><path d="M11.9986 0.5L16.2246 6.68342L23.4113 8.7918L18.8364 14.7217L19.052 22.2082L11.9986 19.6897L4.94519 22.2082L5.16082 14.7217L0.585938 8.7918L7.77262 6.68342L11.9986 0.5ZM9.99862 12H7.99862C7.99862 14.2091 9.78948 16 11.9986 16C14.1408 16 15.8897 14.316 15.9937 12.1996L15.9986 12H13.9986C13.9986 13.1046 13.1032 14 11.9986 14C10.9443 14 10.0805 13.1841 10.0041 12.1493L9.99862 12Z"/></svg>

<svg xmlns="http://www.w3.org/2000/svg" viewBox="0 0 24 24" fill="currentColor">
    <g>
        <path fill="none" d="M0 0h24v24H0z"/>
        <path d="M12 .5l4.226 6.183 7.187 2.109-4.575 5.93.215 7.486L12 19.69l-7.053 2.518.215-7.486-4.575-5.93 7.187-2.109L12 .5zM10 12H8a4 4 0 0 0 7.995.2L16 12h-2a2 2 0 0 1-3.995.15L10 12z"/>
    </g>
</svg>
